public/imgs/Preloader/logo-holding-white.svg

<svg width="226" height="42" viewBox="0 0 226 42" fill="none" xmlns="http://www.w3.org/2000/svg">
<g clip-path="url(#clip0_930_20606)">
<path d="M33.9891 8.69238C30.3655 8.69238 27.0974 10.2569 24.8104 12.7515L28.9039 18.988C29.7851 17.0391 31.7327 15.6816 33.9891 15.6816C37.0721 15.6816 39.5801 18.2138 39.5801 21.3267C39.5801 24.4396 37.0721 26.9718 33.9891 26.9718C31.9044 26.9718 30.1805 25.7554 29.1235 24.1022C23.7388 15.6816 24.5508 16.8657 22.8083 14.1184C22.385 13.4504 21.8764 12.7582 21.7486 12.6225C19.4683 10.2031 16.2508 8.69238 12.6898 8.69238C5.79019 8.69238 0.176514 14.3604 0.176514 21.3267C0.176514 28.293 5.79019 33.961 12.6898 33.961C16.332 33.961 19.6147 32.3817 21.9031 29.8656L17.8376 23.5296C16.9856 25.5511 14.9995 26.9718 12.6898 26.9718C9.60675 26.9718 7.09877 24.4396 7.09877 21.3267C7.09877 18.2138 9.60675 15.6816 12.6898 15.6816C14.7465 15.6816 16.4904 16.8442 17.5181 18.4853C21.742 25.2245 22.1347 25.7474 23.9624 28.6129C24.4337 29.3508 25.1951 30.3119 25.4441 30.5471C27.6818 32.6626 30.6877 33.961 33.9891 33.961C40.8887 33.961 46.5024 28.293 46.5024 21.3267C46.5024 14.3604 40.8887 8.69238 33.9891 8.69238Z" fill="white"/>
</g>
<path d="M58.7915 33.6665V9.21343H63.2554V33.6665H58.7915ZM67.5978 33.6665V15.8108H71.635V19.3229L71.3067 18.6993C71.7225 17.627 72.4008 16.8174 73.3418 16.2704C74.3046 15.7014 75.4206 15.417 76.6897 15.417C78.0026 15.417 79.1624 15.7014 80.1689 16.2704C81.1974 16.8393 81.9961 17.638 82.565 18.6664C83.1339 19.673 83.4184 20.8437 83.4184 22.1785V33.6665H79.1186V23.196C79.1186 22.4082 78.9654 21.7299 78.6591 21.161C78.3527 20.592 77.926 20.1544 77.379 19.8481C76.8538 19.5198 76.2302 19.3557 75.5081 19.3557C74.8079 19.3557 74.1842 19.5198 73.6372 19.8481C73.0901 20.1544 72.6634 20.592 72.3571 21.161C72.0507 21.7299 71.8976 22.4082 71.8976 23.196V33.6665H67.5978ZM89.1222 33.6665V19.6511H85.9712V15.8108H89.1222V15.22C89.1222 13.8633 89.3957 12.7145 89.9427 11.7736C90.5117 10.8108 91.2994 10.0778 92.306 9.57448C93.3125 9.0712 94.5051 8.81956 95.8837 8.81956C96.1463 8.81956 96.4307 8.84144 96.7371 8.8852C97.0653 8.90708 97.3388 8.93991 97.5576 8.98367V12.6927C97.3388 12.6489 97.1309 12.627 96.934 12.627C96.759 12.6051 96.5948 12.5942 96.4417 12.5942C95.4789 12.5942 94.7349 12.813 94.2097 13.2507C93.6845 13.6664 93.422 14.3229 93.422 15.22V15.8108H101.234V19.6511H93.422V33.6665H89.1222ZM99.6255 33.6665V15.8108H103.958V33.6665H99.6255ZM107.537 33.6665V15.8108H111.574V19.3229L111.246 18.6993C111.661 17.627 112.34 16.8174 113.281 16.2704C114.243 15.7014 115.359 15.417 116.629 15.417C117.941 15.417 119.101 15.7014 120.108 16.2704C121.136 16.8393 121.935 17.638 122.504 18.6664C123.073 19.673 123.357 20.8437 123.357 22.1785V33.6665H119.057V23.196C119.057 22.4082 118.904 21.7299 118.598 21.161C118.292 20.592 117.865 20.1544 117.318 19.8481C116.793 19.5198 116.169 19.3557 115.447 19.3557C114.747 19.3557 114.123 19.5198 113.576 19.8481C113.029 20.1544 112.602 20.592 112.296 21.161C111.99 21.7299 111.836 22.4082 111.836 23.196V33.6665H107.537ZM126.993 33.6665V15.8108H131.293V33.6665H126.993ZM126.993 13.8086V9.21343H131.293V13.8086H126.993ZM133.655 33.6665L139.891 24.7058L133.622 15.8108H138.677L143.567 23.0319H141.302L146.193 15.8108H151.215L144.979 24.7058L151.182 33.6665H146.16L141.335 26.4783H143.534L138.709 33.6665H133.655Z" fill="white"/>
<path d="M170.527 18.2847V9.39264H171.697V13.3553H176.149V9.39264H177.33V18.2847H176.149V14.4295H171.697V18.2847H170.527ZM183.553 18.4279C182.924 18.4279 182.336 18.3165 181.787 18.0937C181.237 17.8629 180.756 17.5407 180.342 17.1269C179.936 16.7131 179.618 16.2278 179.387 15.6708C179.157 15.1058 179.041 14.4931 179.041 13.8327C179.041 13.1643 179.157 12.5516 179.387 11.9946C179.618 11.4376 179.936 10.9522 180.342 10.5385C180.756 10.1247 181.233 9.80641 181.775 9.58361C182.324 9.36081 182.916 9.24941 183.553 9.24941C184.19 9.24941 184.778 9.36479 185.319 9.59555C185.868 9.81834 186.346 10.1366 186.752 10.5504C187.165 10.9562 187.488 11.4376 187.719 11.9946C187.957 12.5516 188.077 13.1643 188.077 13.8327C188.077 14.4931 187.957 15.1058 187.719 15.6708C187.488 16.2278 187.165 16.7131 186.752 17.1269C186.346 17.5407 185.868 17.8629 185.319 18.0937C184.778 18.3165 184.19 18.4279 183.553 18.4279ZM183.553 17.3418C184.046 17.3418 184.496 17.2542 184.902 17.0792C185.308 16.8962 185.658 16.6455 185.952 16.3272C186.254 16.001 186.485 15.627 186.644 15.2053C186.811 14.7756 186.895 14.3181 186.895 13.8327C186.895 13.3473 186.811 12.8938 186.644 12.472C186.485 12.0503 186.254 11.6803 185.952 11.362C185.658 11.0358 185.308 10.7851 184.902 10.6101C184.496 10.4271 184.046 10.3356 183.553 10.3356C183.068 10.3356 182.622 10.4271 182.216 10.6101C181.81 10.7851 181.456 11.0358 181.154 11.362C180.86 11.6803 180.629 12.0503 180.462 12.472C180.295 12.8938 180.211 13.3473 180.211 13.8327C180.211 14.3181 180.295 14.7756 180.462 15.2053C180.629 15.627 180.86 16.001 181.154 16.3272C181.456 16.6455 181.81 16.8962 182.216 17.0792C182.622 17.2542 183.068 17.3418 183.553 17.3418ZM189.783 18.2847V9.39264H190.952V17.2105H194.855V18.2847H189.783ZM196.17 18.2847V9.39264H199.082C199.981 9.39264 200.765 9.57565 201.434 9.94168C202.102 10.3077 202.619 10.8249 202.985 11.4933C203.351 12.1537 203.534 12.9335 203.534 13.8327C203.534 14.7239 203.351 15.5037 202.985 16.1721C202.619 16.8405 202.102 17.3616 201.434 17.7356C200.765 18.1017 199.981 18.2847 199.082 18.2847H196.17ZM197.34 17.2105H199.094C199.755 17.2105 200.324 17.0712 200.801 16.7927C201.286 16.5142 201.66 16.1243 201.923 15.623C202.185 15.1138 202.317 14.517 202.317 13.8327C202.317 13.1404 202.182 12.5436 201.911 12.0423C201.648 11.541 201.274 11.1551 200.789 10.8846C200.312 10.6061 199.747 10.4668 199.094 10.4668H197.34V17.2105ZM205.017 18.2847V9.39264H206.186V18.2847H205.017ZM208.164 18.2847V9.39264H209.143L214.251 16.5779L213.809 16.6256V9.39264H214.991V18.2847H214.012L208.928 11.0517L209.334 11.0039V18.2847H208.164ZM221.082 18.4279C220.453 18.4279 219.872 18.3165 219.339 18.0937C218.806 17.8629 218.344 17.5407 217.954 17.1269C217.564 16.7131 217.258 16.2278 217.035 15.6708C216.82 15.1138 216.713 14.5051 216.713 13.8446C216.713 13.1762 216.82 12.5635 217.035 12.0065C217.25 11.4495 217.553 10.9642 217.942 10.5504C218.332 10.1366 218.794 9.81834 219.327 9.59555C219.86 9.36479 220.441 9.24941 221.07 9.24941C221.682 9.24941 222.231 9.35683 222.717 9.57167C223.21 9.78652 223.624 10.065 223.958 10.4072C224.3 10.7493 224.543 11.1153 224.686 11.5052L223.636 12.0185C223.429 11.5013 223.107 11.0915 222.669 10.7891C222.231 10.4867 221.698 10.3356 221.07 10.3356C220.449 10.3356 219.896 10.4828 219.411 10.7772C218.933 11.0716 218.559 11.4814 218.289 12.0065C218.018 12.5317 217.883 13.1444 217.883 13.8446C217.883 14.5369 218.018 15.1456 218.289 15.6708C218.567 16.1959 218.945 16.6057 219.422 16.9001C219.908 17.1945 220.461 17.3418 221.082 17.3418C221.623 17.3418 222.112 17.2264 222.55 16.9956C222.987 16.7649 223.333 16.4466 223.588 16.0408C223.843 15.635 223.97 15.1655 223.97 14.6324V14.0833L224.507 14.5846H221.07V13.5701H225.152V14.3579C225.152 14.9785 225.044 15.5395 224.829 16.0408C224.614 16.5421 224.32 16.9718 223.946 17.3298C223.572 17.6799 223.138 17.9505 222.645 18.1414C222.152 18.3324 221.631 18.4279 221.082 18.4279ZM174.633 33.4279C174.004 33.4279 173.423 33.3165 172.89 33.0937C172.357 32.8629 171.896 32.5407 171.506 32.1269C171.116 31.7131 170.81 31.2278 170.587 30.6708C170.372 30.1138 170.264 29.5051 170.264 28.8446C170.264 28.1762 170.372 27.5635 170.587 27.0065C170.802 26.4495 171.104 25.9642 171.494 25.5504C171.884 25.1366 172.345 24.8183 172.878 24.5955C173.411 24.3648 173.992 24.2494 174.621 24.2494C175.234 24.2494 175.783 24.3568 176.268 24.5717C176.761 24.7865 177.175 25.065 177.509 25.4072C177.852 25.7493 178.094 26.1153 178.237 26.5052L177.187 27.0185C176.98 26.5013 176.658 26.0915 176.22 25.7891C175.783 25.4867 175.25 25.3356 174.621 25.3356C174 25.3356 173.447 25.4828 172.962 25.7772C172.484 26.0716 172.11 26.4814 171.84 27.0065C171.569 27.5317 171.434 28.1444 171.434 28.8446C171.434 29.5369 171.569 30.1456 171.84 30.6708C172.118 31.1959 172.496 31.6057 172.974 31.9001C173.459 32.1945 174.012 32.3418 174.633 32.3418C175.174 32.3418 175.663 32.2264 176.101 31.9956C176.539 31.7649 176.885 31.4466 177.139 31.0408C177.394 30.635 177.521 30.1655 177.521 29.6324V29.0833L178.058 29.5846H174.621V28.5701H178.703V29.3579C178.703 29.9785 178.596 30.5395 178.381 31.0408C178.166 31.5421 177.871 31.9718 177.497 32.3298C177.123 32.6799 176.69 32.9505 176.196 33.1414C175.703 33.3324 175.182 33.4279 174.633 33.4279ZM180.283 33.2847V24.3926H183.422C184.011 24.3926 184.528 24.504 184.974 24.7268C185.419 24.9496 185.765 25.2679 186.012 25.6817C186.267 26.0955 186.394 26.5808 186.394 27.1378C186.394 27.7664 186.235 28.2996 185.917 28.7372C185.598 29.1748 185.169 29.4891 184.628 29.6801L186.692 33.2847H185.332L183.159 29.4295L183.935 29.883H181.453V33.2847H180.283ZM181.453 28.8088H183.458C183.808 28.8088 184.114 28.7412 184.377 28.6059C184.639 28.4706 184.842 28.2757 184.986 28.0211C185.137 27.7664 185.212 27.472 185.212 27.1378C185.212 26.7957 185.137 26.5013 184.986 26.2546C184.842 26 184.639 25.805 184.377 25.6698C184.114 25.5345 183.808 25.4668 183.458 25.4668H181.453V28.8088ZM192.272 33.4279C191.643 33.4279 191.054 33.3165 190.505 33.0937C189.956 32.8629 189.475 32.5407 189.061 32.1269C188.655 31.7131 188.337 31.2278 188.106 30.6708C187.875 30.1058 187.76 29.4931 187.76 28.8327C187.76 28.1643 187.875 27.5516 188.106 26.9946C188.337 26.4376 188.655 25.9522 189.061 25.5385C189.475 25.1247 189.952 24.8064 190.493 24.5836C191.042 24.3608 191.635 24.2494 192.272 24.2494C192.908 24.2494 193.497 24.3648 194.038 24.5955C194.587 24.8183 195.064 25.1366 195.47 25.5504C195.884 25.9562 196.206 26.4376 196.437 26.9946C196.676 27.5516 196.795 28.1643 196.795 28.8327C196.795 29.4931 196.676 30.1058 196.437 30.6708C196.206 31.2278 195.884 31.7131 195.47 32.1269C195.064 32.5407 194.587 32.8629 194.038 33.0937C193.497 33.3165 192.908 33.4279 192.272 33.4279ZM192.272 32.3418C192.765 32.3418 193.214 32.2542 193.62 32.0792C194.026 31.8962 194.376 31.6455 194.671 31.3272C194.973 31.001 195.204 30.627 195.363 30.2053C195.53 29.7756 195.614 29.3181 195.614 28.8327C195.614 28.3473 195.53 27.8938 195.363 27.472C195.204 27.0503 194.973 26.6803 194.671 26.362C194.376 26.0358 194.026 25.7851 193.62 25.6101C193.214 25.4271 192.765 25.3356 192.272 25.3356C191.786 25.3356 191.341 25.4271 190.935 25.6101C190.529 25.7851 190.175 26.0358 189.873 26.362C189.578 26.6803 189.347 27.0503 189.18 27.472C189.013 27.8938 188.93 28.3473 188.93 28.8327C188.93 29.3181 189.013 29.7756 189.18 30.2053C189.347 30.627 189.578 31.001 189.873 31.3272C190.175 31.6455 190.529 31.8962 190.935 32.0792C191.341 32.2542 191.786 32.3418 192.272 32.3418ZM201.724 33.4279C201.079 33.4279 200.506 33.2926 200.005 33.0221C199.512 32.7515 199.126 32.3815 198.847 31.9121C198.577 31.4346 198.441 30.8936 198.441 30.2888V24.3926H199.623V30.265C199.623 30.6708 199.711 31.0328 199.886 31.3511C200.069 31.6614 200.315 31.9041 200.626 32.0792C200.944 32.2542 201.31 32.3418 201.724 32.3418C202.137 32.3418 202.5 32.2542 202.81 32.0792C203.128 31.9041 203.375 31.6614 203.55 31.3511C203.733 31.0328 203.824 30.6708 203.824 30.265V24.3926H205.006V30.2888C205.006 30.8936 204.867 31.4346 204.588 31.9121C204.318 32.3815 203.936 32.7515 203.442 33.0221C202.949 33.2926 202.376 33.4279 201.724 33.4279ZM206.928 33.2847V24.3926H210.067C210.656 24.3926 211.173 24.504 211.619 24.7268C212.065 24.9496 212.411 25.2679 212.657 25.6817C212.912 26.0955 213.039 26.5808 213.039 27.1378C213.039 27.6948 212.912 28.1802 212.657 28.594C212.411 28.9998 212.065 29.3181 211.619 29.5488C211.181 29.7716 210.664 29.883 210.067 29.883H208.098V33.2847H206.928ZM208.098 28.8088H210.103C210.461 28.8088 210.772 28.7412 211.034 28.6059C211.297 28.4706 211.5 28.2757 211.643 28.0211C211.786 27.7664 211.858 27.472 211.858 27.1378C211.858 26.7957 211.786 26.5013 211.643 26.2546C211.5 26 211.297 25.805 211.034 25.6698C210.772 25.5345 210.461 25.4668 210.103 25.4668H208.098V28.8088Z" fill="white"/>
<path d="M161.415 8.69238L161.415 33.961" stroke="white" stroke-width="0.477424"/>
<defs>
<clipPath id="clip0_930_20606">
<rect width="46.3258" height="25.2686" fill="white" transform="translate(0.17627 8.69238)"/>
</clipPath>
</defs>
</svg>

<svg xmlns="http://www.w3.org/2000/svg" width="226" height="42" fill="none"><g clip-path="url(#a)"><path fill="#fff" d="M33.99 8.692c-3.625 0-6.893 1.565-9.18 4.06l4.094 6.236c.881-1.949 2.829-3.306 5.085-3.306 3.083 0 5.591 2.532 5.591 5.645 0 3.113-2.508 5.645-5.59 5.645-2.086 0-3.81-1.217-4.867-2.87-5.384-8.42-4.572-7.236-6.315-9.984-.423-.668-.932-1.36-1.06-1.495-2.28-2.42-5.497-3.93-9.058-3.93C5.79 8.692.177 14.36.177 21.326c0 6.966 5.613 12.634 12.513 12.634 3.642 0 6.925-1.58 9.213-4.095l-4.065-6.336c-.852 2.021-2.839 3.442-5.148 3.442-3.083 0-5.591-2.532-5.591-5.645 0-3.113 2.508-5.645 5.59-5.645 2.057 0 3.801 1.162 4.83 2.803 4.223 6.74 4.616 7.262 6.443 10.128.472.738 1.233 1.699 1.482 1.934a12.403 12.403 0 0 0 8.545 3.414c6.9 0 12.513-5.668 12.513-12.634 0-6.967-5.613-12.635-12.513-12.635Z"/></g><path fill="#fff" d="M58.791 33.666V9.213h4.464v24.453h-4.464Zm8.807 0V15.811h4.037v3.512l-.328-.624c.415-1.072 1.094-1.882 2.035-2.429.963-.569 2.079-.853 3.348-.853 1.313 0 2.472.284 3.479.853a6.011 6.011 0 0 1 2.396 2.396c.569 1.007.853 2.178.853 3.512v11.488h-4.3v-10.47c0-.788-.153-1.466-.459-2.035a3.218 3.218 0 0 0-1.28-1.313c-.525-.328-1.149-.492-1.87-.492-.701 0-1.325.164-1.872.492a3.217 3.217 0 0 0-1.28 1.313c-.306.569-.46 1.247-.46 2.035v10.47h-4.3Zm21.524 0V19.651h-3.15v-3.84h3.15v-.591c0-1.357.274-2.506.82-3.446a5.594 5.594 0 0 1 2.364-2.2c1.007-.503 2.2-.754 3.578-.754.262 0 .547.021.853.065.328.022.602.055.82.099v3.709a3.18 3.18 0 0 0-.623-.066 3.977 3.977 0 0 0-.492-.033c-.963 0-1.707.219-2.232.657-.525.415-.788 1.072-.788 1.969v.59h7.812v3.841h-7.812v14.015h-4.3Zm10.504 0V15.811h4.332v17.855h-4.332Zm7.911 0V15.811h4.037v3.512l-.328-.624c.415-1.072 1.094-1.882 2.035-2.429.962-.569 2.078-.853 3.348-.853 1.312 0 2.472.284 3.479.853a6.015 6.015 0 0 1 2.396 2.396c.569 1.007.853 2.178.853 3.512v11.488h-4.3v-10.47c0-.788-.153-1.466-.459-2.035a3.215 3.215 0 0 0-1.28-1.313c-.525-.328-1.149-.492-1.871-.492-.7 0-1.324.164-1.871.492a3.215 3.215 0 0 0-1.28 1.313c-.306.569-.46 1.247-.46 2.035v10.47h-4.299Zm19.456 0V15.811h4.3v17.855h-4.3Zm0-19.857V9.213h4.3v4.596h-4.3Zm6.662 19.858 6.236-8.961-6.269-8.895h5.055l4.89 7.22h-2.265l4.891-7.22h5.022l-6.236 8.895 6.203 8.96h-5.022l-4.825-7.188h2.199l-4.825 7.188h-5.054ZM170.527 18.285V9.393h1.17v3.962h4.452V9.393h1.181v8.892h-1.181V14.43h-4.452v3.855h-1.17Zm13.026.143a4.649 4.649 0 0 1-1.766-.334 4.467 4.467 0 0 1-1.445-.967 4.537 4.537 0 0 1-.955-1.456 4.83 4.83 0 0 1-.346-1.838c0-.669.116-1.281.346-1.838a4.535 4.535 0 0 1 .955-1.456 4.342 4.342 0 0 1 1.433-.955 4.68 4.68 0 0 1 1.778-.335c.637 0 1.225.116 1.766.347a4.193 4.193 0 0 1 1.433.954c.413.406.736.888.967 1.445a4.63 4.63 0 0 1 .358 1.838c0 .66-.12 1.273-.358 1.838a4.455 4.455 0 0 1-.967 1.456 4.343 4.343 0 0 1-1.433.967 4.59 4.59 0 0 1-1.766.334Zm0-1.086c.493 0 .943-.088 1.349-.263a3.206 3.206 0 0 0 1.05-.752c.302-.326.533-.7.692-1.122.167-.43.251-.887.251-1.372 0-.486-.084-.94-.251-1.361a3.272 3.272 0 0 0-.692-1.11 2.99 2.99 0 0 0-1.05-.752 3.247 3.247 0 0 0-1.349-.274c-.485 0-.931.091-1.337.274a3.11 3.11 0 0 0-1.062.752 3.54 3.54 0 0 0-.692 1.11 3.663 3.663 0 0 0-.251 1.36c0 .486.084.944.251 1.373.167.422.398.796.692 1.122.302.318.656.57 1.062.752.406.175.852.263 1.337.263Zm6.23.943V9.393h1.169v7.817h3.903v1.075h-5.072Zm6.387 0V9.393h2.912c.899 0 1.683.183 2.352.549a3.834 3.834 0 0 1 1.551 1.551c.366.66.549 1.44.549 2.34 0 .89-.183 1.67-.549 2.34a3.913 3.913 0 0 1-1.551 1.563c-.669.366-1.453.549-2.352.549h-2.912Zm1.17-1.075h1.754c.661 0 1.23-.139 1.707-.417a2.844 2.844 0 0 0 1.122-1.17c.262-.51.394-1.106.394-1.79 0-.693-.135-1.29-.406-1.79a2.767 2.767 0 0 0-1.122-1.158c-.477-.279-1.042-.418-1.695-.418h-1.754v6.743Zm7.677 1.075V9.393h1.169v8.892h-1.169Zm3.147 0V9.393h.979l5.108 7.185-.442.048V9.393h1.182v8.892h-.979l-5.084-7.233.406-.048v7.28h-1.17Zm12.918.143c-.629 0-1.21-.111-1.743-.334a4.144 4.144 0 0 1-1.385-.967 4.58 4.58 0 0 1-.919-1.456 5.03 5.03 0 0 1-.322-1.826c0-.669.107-1.282.322-1.838a4.432 4.432 0 0 1 .907-1.457c.39-.413.852-.732 1.385-.954a4.34 4.34 0 0 1 1.743-.347c.612 0 1.161.108 1.647.323a3.87 3.87 0 0 1 1.241.835c.342.342.585.708.728 1.098l-1.05.513a2.653 2.653 0 0 0-.967-1.229c-.438-.302-.971-.453-1.599-.453-.621 0-1.174.147-1.659.441a3.044 3.044 0 0 0-1.122 1.23c-.271.525-.406 1.137-.406 1.838 0 .692.135 1.3.406 1.826.278.525.656.935 1.133 1.23.486.294 1.039.44 1.66.44a3.1 3.1 0 0 0 1.468-.345c.437-.231.783-.55 1.038-.955.255-.406.382-.876.382-1.409v-.549l.537.502h-3.437V13.57h4.082v.788c0 .62-.108 1.181-.323 1.683a3.875 3.875 0 0 1-.883 1.289c-.374.35-.808.62-1.301.811a4.288 4.288 0 0 1-1.563.287Zm-46.449 15c-.629 0-1.21-.111-1.743-.334a4.14 4.14 0 0 1-1.384-.967 4.58 4.58 0 0 1-.919-1.456 5.03 5.03 0 0 1-.323-1.826c0-.669.108-1.281.323-1.838a4.416 4.416 0 0 1 .907-1.457c.39-.413.851-.732 1.384-.954a4.34 4.34 0 0 1 1.743-.347c.613 0 1.162.108 1.647.323a3.87 3.87 0 0 1 1.241.835c.343.342.585.708.728 1.098l-1.05.514a2.653 2.653 0 0 0-.967-1.23c-.437-.302-.97-.453-1.599-.453-.621 0-1.174.147-1.659.441a3.044 3.044 0 0 0-1.122 1.23c-.271.525-.406 1.137-.406 1.838 0 .692.135 1.3.406 1.826.278.525.656.935 1.134 1.23.485.293 1.038.44 1.659.44a3.1 3.1 0 0 0 1.468-.345c.438-.231.784-.55 1.038-.955.255-.406.382-.875.382-1.409v-.549l.537.502h-3.437V28.57h4.082v.788c0 .62-.107 1.181-.322 1.683-.215.501-.51.93-.884 1.289-.374.35-.807.62-1.301.811a4.288 4.288 0 0 1-1.563.287Zm5.65-.143v-8.892h3.139c.589 0 1.106.111 1.552.334.445.223.791.54 1.038.955.255.414.382.899.382 1.456 0 .628-.159 1.162-.477 1.6a2.637 2.637 0 0 1-1.289.942l2.064 3.605h-1.36l-2.173-3.855.776.453h-2.482v3.402h-1.17Zm1.17-4.476h2.005c.35 0 .656-.068.919-.203.262-.135.465-.33.609-.585.151-.255.226-.549.226-.883 0-.342-.075-.637-.226-.883a1.447 1.447 0 0 0-.609-.585 1.981 1.981 0 0 0-.919-.203h-2.005v3.342Zm10.819 4.619a4.654 4.654 0 0 1-1.767-.334 4.474 4.474 0 0 1-1.444-.967 4.537 4.537 0 0 1-.955-1.456 4.81 4.81 0 0 1-.346-1.838c0-.669.115-1.281.346-1.838a4.535 4.535 0 0 1 .955-1.457 4.348 4.348 0 0 1 1.432-.954 4.686 4.686 0 0 1 1.779-.335c.636 0 1.225.116 1.766.347a4.19 4.19 0 0 1 1.432.954c.414.406.736.888.967 1.445.239.557.358 1.17.358 1.838a4.67 4.67 0 0 1-.358 1.838 4.44 4.44 0 0 1-.967 1.456 4.338 4.338 0 0 1-1.432.967 4.594 4.594 0 0 1-1.766.334Zm0-1.086a3.37 3.37 0 0 0 1.348-.263 3.22 3.22 0 0 0 1.051-.752c.302-.326.533-.7.692-1.122.167-.43.251-.887.251-1.372 0-.486-.084-.94-.251-1.361a3.272 3.272 0 0 0-.692-1.11 3.003 3.003 0 0 0-1.051-.752 3.242 3.242 0 0 0-1.348-.274c-.486 0-.931.091-1.337.274a3.11 3.11 0 0 0-1.062.752 3.525 3.525 0 0 0-.693 1.11c-.167.422-.25.875-.25 1.36 0 .486.083.944.25 1.373.167.422.398.796.693 1.122.302.318.656.57 1.062.752a3.34 3.34 0 0 0 1.337.263Zm9.452 1.086c-.645 0-1.218-.135-1.719-.406a2.996 2.996 0 0 1-1.158-1.11 3.24 3.24 0 0 1-.406-1.623v-5.896h1.182v5.872c0 .406.088.768.263 1.086.183.31.429.553.74.728a2.24 2.24 0 0 0 1.098.263c.413 0 .776-.088 1.086-.263.318-.175.565-.418.74-.728a2.14 2.14 0 0 0 .274-1.086v-5.872h1.182v5.896c0 .605-.139 1.146-.418 1.623-.27.47-.652.84-1.146 1.11-.493.27-1.066.406-1.718.406Zm5.204-.143v-8.892h3.139c.589 0 1.106.111 1.552.334.446.223.792.54 1.038.955.255.414.382.899.382 1.456 0 .557-.127 1.042-.382 1.456a2.558 2.558 0 0 1-1.038.955c-.438.223-.955.334-1.552.334h-1.969v3.402h-1.17Zm1.17-4.476h2.005c.358 0 .669-.068.931-.203.263-.135.466-.33.609-.585.143-.255.215-.549.215-.883 0-.342-.072-.637-.215-.883a1.436 1.436 0 0 0-.609-.585 2.006 2.006 0 0 0-.931-.203h-2.005v3.342Z"/><path stroke="#fff" stroke-width=".477" d="M161.415 8.692v25.269"/><defs><clipPath id="a"><path fill="#fff" d="M.176 8.692h46.326v25.27H.176z"/></clipPath></defs></svg>
